melody-of-light/img/icons/icomoon/zoom-in.svg

<svg width="47" height="46" viewBox="0 0 47 46" fill="none" xmlns="http://www.w3.org/2000/svg">
<path fill-rule="evenodd" clip-rule="evenodd" d="M21.584 7.66659C14.1742 7.66659 8.16732 13.6734 8.16732 21.0833C8.16732 28.4931 14.1742 34.4999 21.584 34.4999C28.9938 34.4999 35.0007 28.4931 35.0007 21.0833C35.0007 13.6734 28.9938 7.66659 21.584 7.66659ZM4.33398 21.0833C4.33398 11.5563 12.0571 3.83325 21.584 3.83325C31.1109 3.83325 38.834 11.5563 38.834 21.0833C38.834 30.6102 31.1109 38.3333 21.584 38.3333C12.0571 38.3333 4.33398 30.6102 4.33398 21.0833Z" fill="white"/>
<path fill-rule="evenodd" clip-rule="evenodd" d="M31.7293 31.2279C32.4779 30.4794 33.6914 30.4794 34.4399 31.2279L42.1066 38.8945C42.8551 39.6431 42.8551 40.8566 42.1066 41.6051C41.3581 42.3536 40.1445 42.3536 39.396 41.6051L31.7293 33.9385C30.9808 33.19 30.9808 31.9764 31.7293 31.2279Z" fill="white"/>
<path fill-rule="evenodd" clip-rule="evenodd" d="M21.5827 13.4167C22.6412 13.4167 23.4993 14.2749 23.4993 15.3334V19.1667H27.3327C28.3912 19.1667 29.2493 20.0249 29.2493 21.0834C29.2493 22.142 28.3912 23.0001 27.3327 23.0001H23.4993V26.8334C23.4993 27.892 22.6412 28.7501 21.5827 28.7501C20.5241 28.7501 19.666 27.892 19.666 26.8334V23.0001H15.8327C14.7741 23.0001 13.916 22.142 13.916 21.0834C13.916 20.0249 14.7741 19.1667 15.8327 19.1667H19.666L19.666 15.3334C19.666 14.2749 20.5241 13.4167 21.5827 13.4167Z" fill="white"/>
</svg>

<svg width="47" height="46" fill="none" xmlns="http://www.w3.org/2000/svg"><path fill-rule="evenodd" clip-rule="evenodd" d="M21.584 7.667c-7.41 0-13.417 6.006-13.417 13.416S14.174 34.5 21.584 34.5s13.417-6.007 13.417-13.417S28.994 7.667 21.584 7.667zM4.334 21.083c0-9.527 7.723-17.25 17.25-17.25 9.527 0 17.25 7.723 17.25 17.25 0 9.527-7.723 17.25-17.25 17.25-9.527 0-17.25-7.723-17.25-17.25z" fill="#fff"/><path fill-rule="evenodd" clip-rule="evenodd" d="M31.73 31.228a1.917 1.917 0 012.71 0l7.667 7.666a1.917 1.917 0 01-2.711 2.711l-7.667-7.666a1.917 1.917 0 010-2.711zM21.583 13.417c1.058 0 1.916.858 1.916 1.916v3.834h3.834a1.917 1.917 0 010 3.833h-3.834v3.833a1.917 1.917 0 11-3.833 0V23h-3.833a1.917 1.917 0 110-3.833h3.833v-3.834c0-1.058.858-1.916 1.917-1.916z" fill="#fff"/></svg>
